app/assets/images/documents.svg

<svg width="249" height="260" viewBox="0 0 249 260" fill="none" xmlns="http://www.w3.org/2000/svg">
<path d="M48.2266 43.1752C48.2236 38.7569 51.8028 35.1777 56.2211 35.1807L162.535 35.254C166.953 35.2571 170.538 38.8412 170.541 43.2595L170.654 207.451C170.657 211.869 167.077 215.448 162.659 215.445L56.345 215.372C51.9267 215.369 48.3426 211.785 48.3395 207.366L48.2266 43.1752Z" stroke="white" stroke-width="4"/>
<path d="M56.9605 52.2663C56.9575 47.848 60.5367 44.2687 64.955 44.2718L171.269 44.3451C175.687 44.3481 179.271 47.9323 179.274 52.3506L179.387 216.542C179.39 220.96 175.811 224.539 171.393 224.536L65.0789 224.463C60.6606 224.46 57.0764 220.876 57.0734 216.457L56.9605 52.2663Z" stroke="white" stroke-width="4"/>
<path d="M195.743 66.0802C195.74 63.2201 198.057 60.9034 200.917 60.9057C203.777 60.9081 206.098 63.2286 206.1 66.0888L206.215 205.408C206.216 206.918 205.797 208.374 204.99 209.603C204.061 211.018 202.872 212.777 201.83 214.172C201.533 214.568 201.259 214.921 201.014 215.22C200.77 214.92 200.498 214.567 200.205 214.17C199.168 212.77 197.988 211.005 197.067 209.589C196.273 208.367 195.859 206.924 195.858 205.429L195.743 66.0802Z" stroke="white" stroke-width="4"/>
</svg>

<svg width="249" height="260" fill="none" xmlns="http://www.w3.org/2000/svg"><path d="M48.227 43.175a7.987 7.987 0 0 1 7.994-7.994l106.314.073a8.014 8.014 0 0 1 8.006 8.006l.113 164.191a7.987 7.987 0 0 1-7.995 7.994l-106.314-.073a8.013 8.013 0 0 1-8.005-8.006l-.113-164.19z" stroke="#fff" stroke-width="4"/><path d="M56.96 52.266a7.987 7.987 0 0 1 7.995-7.994l106.314.073a8.013 8.013 0 0 1 8.005 8.006l.113 164.191a7.986 7.986 0 0 1-7.994 7.994l-106.314-.073a8.013 8.013 0 0 1-8.006-8.006l-.112-164.19zM195.743 66.08a5.168 5.168 0 0 1 5.174-5.174 5.189 5.189 0 0 1 5.183 5.183l.115 139.319c.001 1.51-.418 2.966-1.225 4.195-.929 1.415-2.118 3.174-3.16 4.569-.297.396-.571.749-.816 1.048-.244-.3-.516-.653-.809-1.05-1.037-1.4-2.217-3.165-3.138-4.581a7.625 7.625 0 0 1-1.209-4.16l-.115-139.349z" stroke="#fff" stroke-width="4"/></svg>
